status/48/audio-volume-medium-symbolic.svg

<?xml version="1.0" encoding="UTF-8" standalone="no"?>
<svg
   height="48"
   width="48"
   version="1.1"
   id="svg6"
   xmlns="http://www.w3.org/2000/svg"
   xmlns:svg="http://www.w3.org/2000/svg">
  <defs
     id="defs10" />
  <path
     id="path829-3"
     style="font-variation-settings:normal;vector-effect:none;fill:#555761;fill-opacity:1;stroke:none;stroke-width:4;stroke-linecap:round;stroke-linejoin:round;stroke-miterlimit:4;stroke-dasharray:none;stroke-dashoffset:0;stroke-opacity:1;-inkscape-stroke:none;stop-color:#000000"
     d="m 22.5,13 c -0.436463,0 -0.827938,0.184824 -1.101562,0.480469 L 15,19 H 11.5 C 10.669,19 10,19.669 10,20.5 v 7 c 0,0.831 0.669,1.5 1.5,1.5 H 15 l 6.408203,5.529297 C 21.681361,34.819055 22.068515,35 22.5,35 23.331,35 24,34.331 24,33.5 v -19 C 24,13.669 23.331,13 22.5,13 Z m 12.496094,0 a 1.5,1.5 0 0 0 -1.5,1.5 1.5,1.5 0 0 0 0.164062,0.683594 A 17.975,17.975 0 0 1 35.976562,24 17.975,17.975 0 0 1 33.660156,32.816406 1.5,1.5 0 0 0 33.496094,33.5 a 1.5,1.5 0 0 0 1.5,1.5 1.5,1.5 0 0 0 1.273437,-0.714844 l 0.0078,0.0039 A 20.975,20.975 0 0 0 38.972656,24 20.975,20.975 0 0 0 36.277344,13.710938 l -0.0078,0.0039 A 1.5,1.5 0 0 0 34.996094,13 Z m -6.332032,3 a 1.5,1.5 0 0 0 -1.5,1.5 1.5,1.5 0 0 0 0.167969,0.679688 l -0.0078,0.0039 A 10.99168,10.99168 0 0 1 28.992188,24 10.99168,10.99168 0 0 1 27.324219,29.816406 l 0.0078,0.0039 A 1.5,1.5 0 0 0 27.164062,30.5 a 1.5,1.5 0 0 0 1.5,1.5 1.5,1.5 0 0 0 1.203126,-0.597656 l 0.01172,0.0078 A 14,14 0 0 0 32,24 14,14 0 0 0 29.878906,16.589844 l -0.01172,0.0078 A 1.5,1.5 0 0 0 28.664062,16 Z" />
  <g
     transform="translate(-593,295)"
     id="g4" />
</svg>

<svg
        xmlns='http://www.w3.org/2000/svg'
        xmlns:svg='http://www.w3.org/2000/svg'
        id='svg6'
        width='48'
        height='48'>
  <path
          id='path829-3'
          fill='url(#gpa:foreground) #555761'
          fill-opacity='1'
          fill-rule='nonzero'
          stroke='none'
          stroke-opacity='1'
          stroke-width='4'
          stroke-linecap='round'
          stroke-linejoin='round'
          stroke-miterlimit='4'
          stroke-dasharray='none'
          stroke-dashoffset='0'
          d='M 22.5 13 C 22.0635 13, 21.6721 13.1848, 21.3984 13.4805 L 15 19 L 11.5 19 C 10.669 19, 10 19.669, 10 20.5 L 10 27.5 C 10 28.331, 10.669 29, 11.5 29 L 15 29 L 21.4082 34.5293 C 21.6814 34.8191, 22.0685 35, 22.5 35 C 23.331 35, 24 34.331, 24 33.5 L 24 14.5 C 24 13.669, 23.331 13, 22.5 13 Z M 34.9961 13 A 1.5 1.5 0 0 0 33.4961 14.5 A 1.5 1.5 0 0 0 33.6602 15.1836 A 17.975 17.975 0 0 1 35.9766 24 A 17.975 17.975 0 0 1 33.6602 32.8164 A 1.5 1.5 0 0 0 33.4961 33.5 A 1.5 1.5 0 0 0 34.9961 35 A 1.5 1.5 0 0 0 36.2695 34.2852 L 36.2773 34.2891 A 20.975 20.975 0 0 0 38.9727 24 A 20.975 20.975 0 0 0 36.2773 13.7109 L 36.2695 13.7148 A 1.5 1.5 0 0 0 34.9961 13 Z M 28.6641 16 A 1.5 1.5 0 0 0 27.1641 17.5 A 1.5 1.5 0 0 0 27.332 18.1797 L 27.3242 18.1836 A 10.9917 10.9917 0 0 1 28.9922 24 A 10.9917 10.9917 0 0 1 27.3242 29.8164 L 27.332 29.8203 A 1.5 1.5 0 0 0 27.1641 30.5 A 1.5 1.5 0 0 0 28.6641 32 A 1.5 1.5 0 0 0 29.8672 31.4023 L 29.8789 31.4101 A 14 14 0 0 0 32 24 A 14 14 0 0 0 29.8789 16.5898 L 29.8672 16.5976 A 1.5 1.5 0 0 0 28.6641 16 Z'
          class="foreground">
  </path>
</svg>
